F[ERK3
CUT[ES WAREN DREI GESELLEN]
REG[Europa, Mitteleuropa, Deutschland]
KEY[E1305  08  G 2/4]
MEL[-5  1_-7-6  -5_-7_  210_  210
    -5  1_-7-6  -5_-7_  210_  210
    5  3333  3_3
    5  6543  2_0
    1  -7222  5_.
    4  3322  1_0 //] >>
FCT[Staende -, Soldaten - Lied, Reiter]
